X:4
T:Vals efter Abraham Hagholm
R:vals
H:\"aven efter Karl August Lindblom
A:\"Osterg\"otland
Z:id:hn-vals-4
M:3/4
L:1/8
K:Gm
dc | d2 Ac BA | B2 GB AG | A2 A2 A2 | d3 edc |
d2 Ac BA | B2 GB AG | F2 AF AF | G2 z2 :|
|:d2 | gf ga bg | d3 dcB | B2 A2 A2 | c3 cBA |
B2 A2 A2 | A2 G2 G2 | G2 G2 ^F2 | G2 z2 :|
<end>
<start>
